src/main/resources/static/css/primeicons/raw-svg/sort-numeric-up.svg

<?xml version="1.0" encoding="UTF-8"?>
<svg id="sort-numeric-up" xmlns="http://www.w3.org/2000/svg" viewBox="0 0 24 24">
  <path d="M10.75,8.25c-.19,0-.38-.07-.53-.22l-1.97-1.97-1.97,1.97c-.29,.29-.77,.29-1.06,0s-.29-.77,0-1.06l2.5-2.5c.29-.29,.77-.29,1.06,0l2.5,2.5c.29,.29,.29,.77,0,1.06-.15,.15-.34,.22-.53,.22Z"/>
  <path d="M8.25,19.75c-.41,0-.75-.34-.75-.75V5c0-.41,.34-.75,.75-.75s.75,.34,.75,.75v14c0,.41-.34,.75-.75,.75Z"/>
  <path d="M17,11.25c-.41,0-.75-.34-.75-.75V6.44l-.39,.21c-.37,.2-.82,.07-1.02-.29-.2-.36-.07-.82,.29-1.02l.65-.36c.36-.26,.82-.3,1.22-.12,.45,.21,.74,.67,.74,1.19v4.45c0,.41-.34,.75-.75,.75Z"/>
  <path d="M16.5,17.25c-1.24,0-2.25-1.01-2.25-2.25s1.01-2.25,2.25-2.25,2.25,1.01,2.25,2.25-1.01,2.25-2.25,2.25Zm0-3c-.41,0-.75,.34-.75,.75s.34,.75,.75,.75,.75-.34,.75-.75-.34-.75-.75-.75Z"/>
  <path d="M15.98,19.25h-.48c-.41,0-.75-.34-.75-.75s.34-.75,.75-.75h.48c.65,0,1.22-.54,1.25-1.19,.01-.29,.01-.64,.01-1.06v-.5c0-.41,.34-.75,.75-.75s.75,.34,.75,.75v.5c0,.45,0,.82-.02,1.14-.07,1.44-1.31,2.61-2.75,2.61Z"/>
</svg>

<svg xmlns="http://www.w3.org/2000/svg" viewBox="0 0 24 24"><g id="sort-numeric-up"><path d="M10.75,8.25A.74.74,0,0,1,10.22,8l-2-2-2,2A.75.75,0,1,1,5.22,7l2.5-2.5a.75.75,0,0,1,1.06,0L11.28,7a.75.75,0,0,1,0,1.06A.74.74,0,0,1,10.75,8.25Z"/><path d="M8.25,19.75A.76.76,0,0,1,7.5,19V5A.75.75,0,0,1,9,5V19A.76.76,0,0,1,8.25,19.75Z"/><path d="M17,11.25a.76.76,0,0,1-.75-.75V6.44l-.39.22a.76.76,0,0,1-1-.3.75.75,0,0,1,.3-1L15.79,5A1.19,1.19,0,0,1,17,4.87a1.27,1.27,0,0,1,.74,1.18V10.5A.76.76,0,0,1,17,11.25Z"/><path d="M16.5,17.25A2.25,2.25,0,1,1,18.75,15,2.25,2.25,0,0,1,16.5,17.25Zm0-3a.75.75,0,1,0,.75.75A.76.76,0,0,0,16.5,14.25Z"/><path d="M16,19.25H15.5a.75.75,0,0,1,0-1.5H16a1.29,1.29,0,0,0,1.26-1.19c0-.29,0-.64,0-1.06V15a.75.75,0,0,1,1.5,0v.5c0,.45,0,.82,0,1.14A2.78,2.78,0,0,1,16,19.25Z"/></g></svg>
